X: 24
T: The Black Slender Boy
M: 3/4
L: 1/8
B: "O'Neill's 24"
N: "Very slow" "1st Setting"
Z: "Transcribed by Norbert Paap, norbertp@bdu.uva.nl"
K:G
G/2A/2 Bc|d/4c/4B/4c/4d/4e/4f/4g/4 fdcB|BAG/2F/2 GDGA|B-~d c/2A/2G/2F/2 A-G|G3 :||
de/2f/2 ga|b2 ag b3/4-a/4a/2-g/2|f-d de/2f/2 g-a|b2 agba|~a3 a/2g/2 fd|
f/2g/2a/2g/2 f-d c-B|B3/4A/4G/2F/2 GDGA|B-~d c/2A/2G/2F/2 A-G|G3||
